X:1
T:[ID 2-26b]
T:[ID 2-26b]
T:Bezeichnung standardisiert: Menuett Menuet In dieser Quelle auch als: Menuetto \"Ahnlich in dieser Quelle: ID 2-26b (Anm. S. Wascher);
T:Urheber unbekannt Erstbeleg: 1767 (Datum in der schriftlichen Quelle) Datum in der hier transkribierten schriftlichen Quelle: 1792
C:Urheber unbekannt
C:Erstbeleg: 1767 (Datum in der schriftlichen Quelle)
C:Datum in der hier transkribierten schriftlichen Quelle: 1792
%%score 1 2
L:1/8
M:3/4
K:D
V:1 treble nm="Primo"
V:2 treble nm="Secondo"
V:1
 d3 fec | d3 fec | dAFD Ec | d4 AG | F2 d2 cB | Aa ^gfed | c2 BA^GB | A6 :: A4 (3FED | BGDB, G,2 | %10
 B4 (3^GFE | cAEC A,2 | e4 (3cBA | fdAF Da | g2 f2 ec | d6 :| %16
V:2
 !fermata!f3 age | f3 age | fcAFGE | F4 FE | D2 B2 A^G | Ac BA^GE | A2 DCB,D | C6 :: F4 (3FED | %9
 GG,B,D B,2 | ^G4 (3GFE | AA,CE C2 | c4 (3cBA | dAFDFf | e2 d2 GE | F6 :| %16

